src/actions/22/view-bank.svg

<svg xmlns="http://www.w3.org/2000/svg" viewBox="0 0 22 22">
    <path d="M11 3 3 7.623V9h1v9H3v1h16v-1h-1V9h1V7.623L11 3zm0 1.156 6.65 3.842H4.35L11 4.156zM5 9h2v9H5V9zm3 0h6v9h-1v-4H9v4H8V9zm7 0h2v9h-2V9z" style="fill:currentColor;fill-opacity:1;stroke:none;color:#050505;opacity:.7"/>
</svg>

<svg xmlns="http://www.w3.org/2000/svg" viewBox="0 0 22 22">
  <defs id="defs3051">
    <style type="text/css" id="current-color-scheme">
      .ColorScheme-Text {
        color:#363636;
      }
      </style>
  </defs>
 <path 
    style="fill:currentColor;fill-opacity:1;stroke:none" 
    d="M 11 3 L 3 7.6230469 L 3 7.9980469 L 3 9 L 4 9 L 4 10 L 4 18 L 3 18 L 3 19 L 19 19 L 19 18 L 18 18 L 18 10 L 18 9 L 19 9 L 19 7.9980469 L 19 7.6230469 L 11 3 z M 11 4.15625 L 17.650391 7.9980469 L 4.3496094 7.9980469 L 11 4.15625 z M 5 9 L 7 9 L 7 10 L 7 18 L 5 18 L 5 10 L 5 9 z M 8 9 L 14 9 L 14 10 L 14 18 L 13 18 L 13 14 L 9 14 L 9 18 L 8 18 L 8 10 L 8 9 z M 15 9 L 17 9 L 17 10 L 17 18 L 15 18 L 15 10 L 15 9 z "
	class="ColorScheme-Text"
    />  
</svg>
